X:781
T:Saddle the pony
R:Jig
O:Ireland
S:O'Neill's 718
B:O'Neill's 718
Z:Transcription, chords:Mike Long
M:6/8
L:1/8
K:D
"D"fed "A"cAA|"A"eAA cBA|"D"fed "A"cAA|"G"BGB dBG|\
"D"fed "A"cAA|"A"cAA efg|"G"f<af gfe|dBG Bcd:|
|:"A"cee "D"dff|"A"cee ecA|"A"cee "D"dff|"G"dBG Bcd|\
"A"cee "D"dff|"A"cAA efg|"G"f<af gfe|dBG Bcd:|
